X: 3245
T: Behind The Bush In The Garden
R: jig
M: 6/8
K: Aminor
B|:c2B AGE|c2B AGE|c2E EDE|G3 GAB|
c2d e2a|age ded|c2A BGE|A3 A2B:|
|:c2G c2d|eag e2d|c2G c2d|e3 GAB|
c2d e2a|age ded|c2A BGE|A3 A2B:|

